X:219
T: AUF IHR BRUEDER LASST UNS WALLEN
N: E0796
O: Europa, Mitteleuropa, Deutschland, Hessen, Nassau
R: Abschieds - Lied, Auswanderung
M: 4/4
L: 1/8
K: C
 | G,2G,2G,E,C,2 | F,2A,2C2G,2 | z2
B,CD2G,2 | C3EE2D2
G,2G,2G,2C2 | A,2A,2CB,A,2
G,2B,2D2GF | E3GE2C2
G,2G,2G,2C2 | A,2A,2CB,A,2
G,2B,2D2GF | E4z4

